X:1
T:Title
%%score 1 2 3 4
L:1/8
M:4/2
K:C
V:1 treble nm="Part_1"
V:2 bass nm="Part_2"
V:3 treble nm="Part_3"
V:4 bass nm="Part_4"
V:1
 z16 | z16 | G8 A8 | G8 c6 E2 | A8 G8 | B3 B B2 c2 A6 AG | F6 ^F2 G6 G2 | A12 ^G4 | A4 c6 E2 A4- | %9
 A>BA>B c8 B4 | z8 ^F3 F F2 A2 | E6 ED C6 C2 | D8 z4 z GED |[M:6/2] E8 z E^CB,CA^FE A6 A2 | %14
[M:4/2] G8- G6 FF | E8 D8 | z G^FE FBAG A3 B A4- | A2 GG ^F4 E8 | z8 z2 B2 c3 B | %19
 c2 A/B/c/A/ B4 A4 AGG^F | G>AG>A B2 c4 B2 c4 | z4 z2 C2 F2 EE A4 |[M:6/2] G6 E2 A12 A4 | %23
[M:4/2] A8 G8 | z16 | z16 | z16 | z16 | z16 | z16 | z16 | z16 | z16 | G8 A8 | G8 d6 ^F2 | %35
 B8 G6 G2 | A8 G8 | c6 E2 A8 | G8 B3 B B2 c2 | A6 AG ^F6 F2 | G6 G2 A8- | A4 ^G4 A4 c4- | %42
 c2 E2 A4- A>BA>B c4- | c4 B4 z8 | ^F3 F F2 A2 E6 ED |[M:6/2] ^C6 C2 D8 z4 z GED | %46
[M:4/2] E8 z E^CB, CA^FE | A6 A2 G8- | G6 FF E8 | D8 z GFE ^F=BAG | A3 B A6 GG ^F4 | E8 z2 A2 c4- | %52
 c2 BB A4 B8- | B16 |] %54
V:2
 G,,8 A,,8 | G,,8 G,6 B,,2 | E,8 D,8 | B,,3 B,, B,,2 C,2 A,,6 A,,A,, | ^F,,6 F,,2 G,,8 | z16 | %6
 D,8 E,8 | D,4 A,,4 B,,8 | A,,8 A,6 ^C,2 | F,8 E,8 | E,3 E, E,2 F,2 D,4 D,4 | %11
 ^C,3 C, C,2 E,2 A,,6 A,,G,, | ^F,,6 F,,2 G,,8 |[M:6/2] C,3 C, C,2 E,2 A,,6 A,,G,, ^F,,6 F,,2 | %14
[M:4/2] G,,G,E,D, E,E,C,B,, C,2 B,,2 A,,2 G,,G,, | A,,8 D,A,^F,E, F,D,B,,A,, | B,,6 E,2 D,6 C,C, | %17
 B,,8 E,,8 | z16 | z16 | z16 | z16 |[M:6/2] z16 z8 |[M:4/2] z8 z4 z2 G,,2 | %24
 C,2 C,2 E,3 E, E,6 C,2 | F,2 F,2 A,3 A, A,2 D,4 C,2 | %26
 B,,2 A,,2 G,,>A,,B,,>C, D,>E,F,>G, A,2 A,,/B,,/C,/A,,/ | D,2 D,,/E,,/F,,/D,,/ A,,4 D,,8 | %28
 D,3 D, D,2 B,,2 G,,2 F,,2 E,,3 E,, | E,,6 E,2 ^C,3 C, D,4 | E,4 A,,2 A,2 ^F,3 F, G,4 | %31
 A,4 D,2 D,2 B,,/A,,/G,,/A,,/ B,,/C,/D,/B,,/ C,/B,,/A,,/B,,/ C,/D,/E,/C,/ | %32
 D,3 C, B,,2 G,,/A,,/B,,/G,,/ D,8 | G,,8 z4 D,4 | E,8 D,8 | G,6 B,,2 E,8 | D,8 B,,3 B,, B,,2 C,2 | %37
 A,,6 A,,G,, ^F,,6 F,,2 | G,,8 z8 | z8 D,8 | E,8 D,4 A,,4 | B,,8 A,,8 | A,6 ^C,2 F,8 | %43
 E,8 E,3 E, E,2 F,2 | D,4 D,4 ^C,3 C, C,2 E,2 |[M:6/2] A,,6 A,,G,, ^F,,6 F,,2 G,,8 | %46
[M:4/2] C,3 C, C,2 E,2 A,,6 A,,G,, | ^F,,6 F,,2 G,,G,E,D, E,E,C,B,, | C,2 B,,2 A,,2 G,,G,, A,,8 | %49
 D,A,^F,E, F,D,B,,A,, B,,6 E,2 | D,6 C,>C, B,,8 | E,,6 E,2 F,6 E,E, | D,8 G,,8- | G,,16 |] %54
V:3
 z16 | z16 | G8 A8 | G8 c6 E2 | A8 G8 | B3 B B2 c2 A6 AG | F6 ^F2 G6 G2 | A12 ^G4 | A4 c6 E2 A4 | %9
 A>BA>B c8 B4 | z8 ^F3 F F2 A2 | E6 ED C6 C2 | D8 z4 z GED |[M:6/2] E8 z E^CB, CA^FE A6 A2 | %14
[M:4/2] G8- G6 FF | E8 D8 | z G^FE FBAG A3 B A4- | A2 GG ^F4 E8 | z8 z2 B2 c3 B | %19
 c2 A2 B4 A4 AGG^F | G>AG>A B2 c4 B2 c4 | z4 z2 C2 F2 EE A4 |[M:6/2] G6 E2 A12 A4 |[M:4/2] A8 G8 | %24
 z16 | z16 | z16 | z16 | z16 | z16 | z16 | z16 | z16 | G8 A8 | G8 d6 ^F2 | B8 G6 G2 | A8 G8 | %37
 c6 E2 A8 | G8 B3 B B2 c2 | A6 AG ^F6 F2 | G6 G2 A8- | A4 ^G4 A4 c4- | c2 E2 A4- ABAB c4- | %43
 c4 B4 z8 | ^F3 F F2 A2 E6 ED |[M:6/2] ^C6 C2 D8 z4 z GED |[M:4/2] E8 z E^CB, CA^FE | %47
 A6 A2 G4- G4 | G6 FF E8 | D8 z GFE ^F=BAG | A3 B A6 GG ^F4 | E8 z2 A2 c4- | c2 BB A4 B8- | B16 |] %54
V:4
 G,,8 A,,8 | G,,8 G,6 B,,2 | E,8 D,8 | B,,3 B,, B,,2 C,2 A,,6 A,,A,, | ^F,,6 F,,2 G,,8 | %5
 E,4 E,4 ^F,4 F,2 G,2 | D,8 E,8 | D,4 A,,4 B,,8 | A,,8 A,6 ^C,2 | F,8 E,8 | %10
 E,3 E, E,2 F,2 D,4 D,4 | ^C,3 C, C,2 E,2 A,,6 A,,G,, | ^F,,6 F,,2 G,,8 | %13
[M:6/2] C,3 C, C,2 E,2 A,,6 A,,G,, ^F,,6 F,,2 |[M:4/2] G,,G,E,D, E,E,C,B,, C,2 B,,2 A,,2 G,,G,, | %15
 A,,8 D,4- D,D,B,,A,, | B,,6 E,2 D,6 C,C, | B,,8 E,,6 E,2 | A,3 G, A,2 F,2 E,4 A,,4- | %19
 A,,2 F,2 E,4 ^C,4 D,4 | G,,6 E,,2 G,,4 C,2 C,2 | F,2 E,E, A,8 ^F,4 | %22
[M:6/2] G,4 E,2 A,3 G,F,E, D,2 C,B,, A,,G,,F,,E,, D,,2 C,,2 |[M:4/2] D,,8 G,,6 G,,2 | %24
 C,2 C,2 E,3 E, E,6 C,2 | F,2 F,2 A,3 A, A,2 D,4 C,2 | %26
 B,,2 A,,2 G,,>A,,B,,>C, D,>E,F,>G, A,2 A,,2 | D,2 D,,2 A,,4 D,,8 | %28
 D,3 D, D,2 B,,2 G,,2 F,,2 E,,3 E,, | E,,6 E,2 ^C,3 C, D,4 | E,4 A,,2 A,2 ^F,3 F, G,4 | %31
 A,4 D,2 D,2 B,,4 C,4 | D,3 C, B,,2 G,,2 D,8 | G,,8 z4 D,4 | E,8 D,8 | G,6 B,,2 E,8 | %36
 D,8 B,,3 B,, B,,2 C,2 | A,,6 A,,G,, ^F,,6 F,,2 | G,,8 E,8 | ^F,4 F,2 G,2 D,8 | E,8 D,4 A,,4 | %41
 B,,8 A,,8 | A,6 ^C,2 F,8 | E,8 E,3 E, E,2 F,2 | D,4 D,4 ^C,3 C, C,2 E,2 | %45
[M:6/2] A,,6 A,,G,, ^F,,6 F,,2 G,,8 |[M:4/2] C,3 C, C,2 E,2 A,,6 A,,G,, | %47
 ^F,,6 F,,2 G,,G,E,D, E,E,C,B,, | C,2 B,,2 A,,2 G,,G,, A,,8 | D,4- D,D,B,,A,, B,,6 E,2 | %50
 D,6 C,>C, B,,8 | E,,6 E,2 F,6 E,E, | D,8 G,,8- | G,,16 |] %54

